X: 41766
T: Varsovienne
R: mazurka
M: 3/4
K: Gmajor
|:B>c d>B G2|B2 A4|A>B c>A F2|e2 d4|
B>c d>B G2|d2 e4|G>A B>c B2|A2 G4:|
|:d2 e>e e2|e2 d4|d2 c>B c>e|d>c B4|
G>A B>^A B>^A|B>^A B4|1 A>B (3cdc B2|A2 G4:|
2 A>B c2 B2|A2 G4||

